X:1
T:Danny Boy (Londonderry Air)
C:Traditional (Irish)
M:4/4
L:1/4
K:Am
Q:1/4=76

E | A2 A B | c2 c d | e2 d c | B2 A A |
G2 A B | c2 c B | A2 A G | A4 |
A2 G A | B2 c B | A2 A G | A4 |]
w: Oh | Dan-ny Boy the | pipes the pipes are | call-ing from | glen to glen and | down the moun- | -tain-side the | sum-mer's gone | and | all the ros- | -es fall-ing 'tis | you 'tis you must | go |
